X: 38065
T: Spirit Of The Dance
R: jig
M: 6/8
K: Gmajor
|:G2D E2D|G2D E2D|GAB c2B|A2G FED|
G2D E2D|G2D E2D|GAB cde|cAF G3:|
|:GAB c3|B3 A3|ABc d3|c3 B3|
GAB c3|B3 A3|Bcd BAG|B2A G3:|

